!!!COM: Palestrina, Giovanni Perluigi da
!!!OPR: Missa Gia fu chi m'ebbe cara
!!!OTL: Gloria
**kern	**kern	**kern	**kern
*Ibass	*Itenor	*Icalto	*Icant
!Bassus	!Tenor	!Altus	!Cantus
*clefF4	*clefGv2	*clefG2	*clefG2
*k[]	*k[]	*k[]	*k[]
*D:dor	*D:dor	*D:dor	*D:dor
*M4/2	*M4/2	*M4/2	*M4/2
=1	=1	=1	=1
1A	1r	0r	0r
2A	2.e	.	.
[2c	.	.	.
.	4e	.	.
=2	=2	=2	=2
2c]	2e	0r	0r
2B	2d	.	.
2c	2e	.	.
2A	2f	.	.
=3	=3	=3	=3
2G	2.g	1d	1r
2G	.	.	.
.	8f	.	.
.	8e	.	.
1D	2f	2d	2.a
.	2d	[2f	.
.	.	.	4a
=4	=4	=4	=4
0r	2c	2f]	2a
.	2c	2e	2g
.	2F	2f	2a
.	2G	2d	2b
=5	=5	=5	=5
1r	1A	2c	2cc
.	.	2f	2a
2r	1c	2e	2g
2A	.	[2e	[2a
=6	=6	=6	=6
1E	1B	2e]	2a]
.	.	2e	2g
2A	2c	2f	2a
2G	2d	2g	2b
=7	=7	=7	=7
1C	1e	1g	1cc
1C	2e	1g	2cc
.	2e	.	2g
=8	=8	=8	=8
1r	2f	1d	2a
.	2d	.	2b
1A	1c	2e	1cc
.	.	2f#	.
=9	=9	=9	=9
2B	1r	2.g	1r
2c	.	.	.
.	.	4e	.
1d	2r	4f	2.a
.	.	4g	.
.	[2d	4a	.
.	.	4f	4a
=10	=10	=10	=10
2.G	4d]	1g	1b
.	4d	.	.
.	2.e	.	.
4G	.	.	.
2A	.	1r	2cc
.	4f	.	.
4B	2d	.	2dd
4B	.	.	.
=11	=11	=11	=11
1c	1c	2.g	2ee
.	.	.	1cc
.	.	4g	.
1r	1r	2a	.
.	.	4b	2dd
.	.	4b	.
=12	=12	=12	=12
0r	2r	1cc	1ee
.	2c	.	.
.	2d	2r	2ff
.	2e	2g	2gg
=13	=13	=13	=13
1r	2f	2a	2r
.	2.g	2b	2dd
[1C	.	2cc	1ee
.	4f	.	.
.	4e	[2cc	.
.	4d	.	.
=14	=14	=14	=14
2C]	2e	2cc]	2ee
2D	2a	2f	2.dd
2E	2g	2g	.
.	.	.	4cc
2F	2f	2a	[2cc
=15	=15	=15	=15
2G	2e	2.g	4cc]
.	.	.	4b
2G	2d	.	2b
.	.	4f	.
2A	2c#	2e	2a
2B-	[2d	2d	2g
=16	=16	=16	=16
1A	2d]	0e	[0a
.	4c#	.	.
.	4B	.	.
1A	1c#	.	.
=17	=17	=17	=17
1D	1d	1f#	1a]
2r	2r	2r	2r
[2G	[2d	[2g	[2b
=18	=18	=18	=18
4G]	4d]	4g]	4b]
4G	4d	4g	4b
2G	2d	2g	2b
2F	2f	2a	2cc
2A	2c	2e	2cc
=19	=19	=19	=19
2.G	1d	1.g	2.b
4A	.	.	4cc
4B	1d	.	1dd
4c	.	.	.
[2d	.	2f	.
=20	=20	=20	=20
2d]	1A	1e	1ee
2c#	.	.	.
1d	2r	2f#	1a
.	[2d	2g	.
=21	=21	=21	=21
2r	2d]	2a	2r
1G	2d	1b	1dd
.	[1g	.	.
2G	.	2b	2dd
=22	=22	=22	=22
1c	1g]	1cc	1ee
2G	2g	2b	2dd
[2c	[2g	[2cc	[2ee
=23	=23	=23	=23
4c]	4g]	4cc]	4ee]
4c	4g	4cc	4ee
2d	2f	1a	2ff
1B-	2f	.	[1dd
.	4e	2g	.
.	4d	.	.
=24	=24	=24	=24
0A	2f	1a	2dd]
.	2e	.	2cc#
.	2r	2r	2r
.	[2a	[2cc	[2ee
=25	=25	=25	=25
0r	4a]	4cc]	4ee]
.	4a	4cc	4ee
.	2g	2b	2ee
.	2f	2a	2dd
.	2e	2g	2ee
=26	=26	=26	=26
1r	2d	2a	2ff
.	2c#	2a	2ee
2r	1d	1a	1ff
[2d	.	.	.
=27	=27	=27	=27
2d]	1A	2a	1ee
2c	.	1a	.
1B-	1r	.	2r
.	.	2g	[2dd
=28	=28	=28	=28
1A	1r	2f	2dd]
.	.	2e	1cc
1G	2r	1g	.
.	[2d	.	[2b-
=29	=29	=29	=29
1A	2d]	2f	2b-]
.	2c#	2.e	2a
1B-	1d	.	1g
.	.	4d	.
.	.	2d	.
=30	=30	=30	=30
0A	2e	2c#	1.a
.	2f	1d	.
.	2e	.	.
.	2e	4c#	2a
.	.	4B	.
=31	=31	=31	=31
2r	1A	0c#	0a
2.A	.	.	.
.	2r	.	.
4A	.	.	.
2A	[2e	.	.
=32	=32	=32	=32
2G	4e]	0r	0r
.	4e	.	.
2A	2e	.	.
2F	2d	.	.
2E	2e	.	.
=33	=33	=33	=33
4D	2f	2r	1r
4E	.	.	.
4F	2d	2.a	.
4G	.	.	.
2.A	2.c	.	2r
.	.	4a	.
.	.	2a	[2ee
4B	4d	.	.
=34	=34	=34	=34
1c	2e	2g	4ee]
.	.	.	4ee
.	2A	2a	2ee
2d	[1a	2f	2dd
2c#	.	2e	2ee
=35	=35	=35	=35
2.d	0a]	4d	2ff
.	.	4e	.
.	.	4f	2dd
8c	.	4g	.
8B	.	.	.
1A	.	4a	4cc
.	.	4b	4dd
.	.	4cc	4ee
.	.	4a	4cc
=36	=36	=36	=36
0r	1r	2b	2dd
.	.	1a	2cc
.	[1e	.	1b
.	.	2g#	.
=37	=37	=37	=37
0A	1e]	0a	0cc
.	[1f	.	.
=38	=38	=38	=38
0c	2f]	2.g	0cc
.	4e	.	.
.	4d	4f	.
.	1e	2g	.
.	.	[2a	.
=39	=39	=39	=39
0d	0f	2a]	1.a
.	.	2g	.
.	.	[1f	.
.	.	.	2b
=40	=40	=40	=40
0c	0g	2f]	[0cc
.	.	4e	.
.	.	4d	.
.	.	1e	.
=41	=41	=41	=41
0F	2a	2f	0cc]
.	2.f	2.a	.
.	4f	4a	.
.	2f	2a	.
=42	=42	=42	=42
0r	2e	2g	2r
.	2d	2f	2.ff
.	2.f	2.a	.
.	.	.	4ff
.	.	.	2ff
.	8e	4b	.
.	8d	.	.
=43	=43	=43	=43
0r	2c	4cc	2ee
.	.	4b	.
.	1d	4a	2dd
.	.	4g	.
.	.	[1a	2ff
.	4c	.	4ee
.	4B	.	4dd
=44	=44	=44	=44
0r	4A	2a]	2cc
.	4B	.	.
.	2c	2g	1ee
.	1d	1f	.
.	.	.	2dd
=45	=45	=45	=45
2r	2A	1e	0ee
2.c	2.e	.	.
.	.	2r	.
4c	4e	.	.
2c	2e	[2g	.
=46	=46	=46	=46
2B	2d	4g]	2r
.	.	4g	.
2A	2f	2a	2.cc
1c	2e	2g	.
.	.	.	4cc
.	[2g	2e	2cc
=47	=47	=47	=47
1d	4g]	1f	2b
.	4f	.	.
.	2.f	.	2a
2.c	.	2g	2cc
.	4e	.	.
.	2e	[2a	2cc
8B	.	.	.
8A	.	.	.
=48	=48	=48	=48
1B	1d	2a]	1dd
.	.	2g#	.
1A	2e	2a	1cc#
.	2A	2a	.
=49	=49	=49	=49
1r	2B	2g	0r
.	2c	2e	.
2r	1d	1f	.
2d	.	.	.
=50	=50	=50	=50
2c	1A	2e	1r
2A	.	2.a	.
1B-	2r	.	2r
.	.	4g	.
.	2d	4g	2dd
.	.	8f	.
.	.	8g	.
=51	=51	=51	=51
1A	2e	1a	2cc
.	2f	.	2a
1G	2g	2d	1b-
.	[2d	2g	.
=52	=52	=52	=52
2D	2d]	2f	[0a
2D	2.f	2d	.
1D	.	1f	.
.	4e	.	.
.	[2d	.	.
=53	=53	=53	=53
[0A	2d]	[0e	1a_
.	4c#	.	.
.	4B	.	.
.	1c#	.	1a_
=54	=54	=54	=54
0A]	0c#	0e]	0a]
=55	=55	=55	=55
1r	0r	1d	1r
1D	.	1f	1a
=56	=56	=56	=56
1A	0r	2f	1cc
.	.	2e	.
2A	.	2f	2cc
2G	.	2g	2b
=57	=57	=57	=57
2F	1A	1a	2cc
2F	.	.	2dd
1C	1c	1g	1ee
=58	=58	=58	=58
1G	2c	2r	2dd
.	2B	2.g	2dd
1r	2c	.	2ee
.	.	4e	.
.	2d	2f	4dd
.	.	.	4cc
=59	=59	=59	=59
1r	1e	2g	2b
.	.	1a	2cc
2r	2e	.	1b
2E	2e	2g#	.
=60	=60	=60	=60
2F	2c	0a	1a
4D	1d	.	.
4E	.	.	.
4F	.	.	1r
4G	.	.	.
[2A	2c	.	.
=61	=61	=61	=61
2A]	1B	0r	2r
2G#	.	.	2b
[1A	4A	.	2cc
.	4B	.	.
.	4c	.	4a
.	4d	.	4b
=62	=62	=62	=62
1A]	2e	2r	4cc
.	.	.	4dd
.	2.a	2e	4ee
.	.	.	4cc
1D	.	2f	[1dd
.	4g	.	.
.	4f	4d	.
.	4e	4e	.
=63	=63	=63	=63
0r	1d	4f	2dd]
.	.	4g	.
.	.	1a	2cc
.	1e	.	1b
.	.	2g	.
=64	=64	=64	=64
1D	1r	2.f	0a
.	.	4e	.
1F	2r	2d	.
.	2A	4c	.
.	.	4B	.
=65	=65	=65	=65
2F	1c	2A	0r
2E	.	2e	.
2F	2c	1d	.
2G	2B	.	.
=66	=66	=66	=66
2A	2c	0r	0r
4G	2d	.	.
4F	.	.	.
2.G	4e	.	.
.	4d	.	.
.	[2d	.	.
4F	.	.	.
=67	=67	=67	=67
1E	2d]	1.g	0r
.	2c#	.	.
[1D	1d	.	.
.	.	4f	.
.	.	4e	.
=68	=68	=68	=68
1D]	1.a	2f	1.dd
.	.	2f	.
[1A	.	1e	.
.	2a	.	4cc
.	.	.	4b
=69	=69	=69	=69
2A]	0e	2r	2cc
2A	.	1a	2cc
1E	.	.	2b
.	.	2g	[2ee
=70	=70	=70	=70
1r	0r	2a	2ee]
.	.	2b	2dd
1A	.	[1cc	2ee
.	.	.	2ff
=71	=71	=71	=71
1G	2r	2cc]	1gg
.	1d	2b-	.
2A	.	1a	2ff
2A	2c#	.	2ee
=72	=72	=72	=72
2D	2d	[0a	2ff
2C#	2e	.	1ee
4D	2f	.	.
4E	.	.	.
4F	2f	.	[2dd
4G	.	.	.
=73	=73	=73	=73
0A	0e	0a]	2dd]
.	.	.	4cc#
.	.	.	4b
.	.	.	1cc#
=74	=74	=74	=74
2D	2d	2r	2dd
2D	2f	2a	2dd
1d	1f	1a	1dd
=75	=75	=75	=75
1A	1e	2a	2cc
.	.	2e	2cc
1r	1r	2f	2a
.	.	2g	2b
=76	=76	=76	=76
0r	2r	2e	1cc
.	2f	1a	.
.	2d	.	1b
.	2e	2g#	.
=77	=77	=77	=77
2r	1f	[0a	1a
1d	.	.	.
.	1e	.	1r
2c#	.	.	.
=78	=78	=78	=78
1d	4d	1a]	2r
.	4e	.	.
.	4f	.	1dd
.	4d	.	.
1A	1e	2r	.
.	.	[2a	2cc#
=79	=79	=79	=79
1B-	2r	2a]	2.dd
.	1d	2g	.
.	.	.	4ee
1A	.	1a	2ff
.	2c#	.	[2ee
=80	=80	=80	=80
4D	2.d	1a	2ee]
4E	.	.	.
4F	.	.	2.dd
4G	4e	.	.
1A	2f	2.a	.
.	.	.	4cc
.	2e	.	4cc
.	.	4g	8dd
.	.	.	8ee
=81	=81	=81	=81
1r	1d	2a	1ff
.	.	2b	.
2r	2c	2.cc	1ee
[2c	[2e	.	.
.	.	8b	.
.	.	8a	.
=82	=82	=82	=82
2c]	2e]	1g	0r
2B	2d	.	.
2c	2e	1r	.
2A	2f	.	.
=83	=83	=83	=83
2B	2g	1r	1r
2c	2e	.	.
1d	2.f	2r	2r
.	.	[2f	[2dd
.	4g	.	.
=84	=84	=84	=84
1A	1a	2f]	2dd]
.	.	2e	2cc
1r	1d	2f	2a
.	.	2d	2b
=85	=85	=85	=85
0r	1r	2e	2cc
.	.	2f	2a
.	2r	1g	1b-
.	2g	.	.
=86	=86	=86	=86
2r	2f	4d	1a
.	.	4e	.
2d	2d	4f	.
.	.	4g	.
2c	2e	1a	1r
2A	2e	.	.
=87	=87	=87	=87
2B-	4d	2r	1dd
.	4e	.	.
2B-	4f	2d	.
.	4g	.	.
1A	1a	2e	2cc
.	.	2f	2a
=88	=88	=88	=88
0r	2r	2g	2b-
.	2g	2g	2b-
.	2f	1d	[1a
.	2d	.	.
=89	=89	=89	=89
1A	1e	2r	1a]
.	.	2a	.
2B	2d	2g	1r
2c	2A	2e	.
=90	=90	=90	=90
1d	1a	1f	2r
.	.	.	2a
2G	2r	2e	2b
2A	2a	2e	2cc
=91	=91	=91	=91
2D	0a	4d	1dd
.	.	4e	.
2d	.	4f	.
.	.	4g	.
2.f	.	4a	2.cc
.	.	4b	.
.	.	[2cc	.
4e	.	.	8dd
.	.	.	8ee
=92	=92	=92	=92
2d	1f	2cc]	2ff
2d	.	2b	2ff
1c	1g	2cc	1ee
.	.	[2cc	.
=93	=93	=93	=93
0G	0g	2cc]	0dd
.	.	4b	.
.	.	4a	.
.	.	1b	.
=94	=94	=94	=94
4c	0e	1.g	4ee
4d	.	.	4ff
4e	.	.	4gg
4d	.	.	4ff
4c	.	.	4ee
4B	.	.	4dd
4A	.	[2a	4cc
4G	.	.	4b
=95	=95	=95	=95
0F	4f	4a]	0a
.	4g	4b	.
.	4a	4cc	.
.	4g	4b	.
.	4f	4a	.
.	4e	4g	.
.	4d	4f	.
.	4c	4e	.
=96	=96	=96	=96
1G	4B	1d	2.g
.	4c	.	.
.	1d	.	.
.	.	.	4f
1A	.	[1a	1e
.	2c#	.	.
=97	=97	=97	=97
0D	0d	1a]	2d
.	.	.	2dd
.	.	2r	2.ff
.	.	2a	.
.	.	.	4ee
=98	=98	=98	=98
2r	1r	2b-	2dd
2A	.	2a	2cc
1B-	2r	2.f	2dd
.	2d	.	2dd
.	.	4g	.
=99	=99	=99	=99
1A	2f	4a	2.cc
.	.	4b	.
.	2e	1cc	.
.	.	.	4b
4F	2f	.	1a
4G	.	.	.
4A	2f	2cc	.
4B	.	.	.
=100	=100	=100	=100
2c	2e	2.cc	2r
2c	1g	.	1ee
.	.	4b	.
2.d	.	[1a	.
.	[2f	.	[2dd
8c	.	.	.
8B	.	.	.
=101	=101	=101	=101
1A	2f]	1a]	2dd]
.	2e	.	2cc#
2r	2d	2r	1dd
[2d	[2f	[2b-	.
=102	=102	=102	=102
2d]	2f]	2b-]	1r
1c	1e	1a	.
.	.	.	2r
2B-	2d	2g	[2dd
=103	=103	=103	=103
1A	1e	1a	2dd]
.	.	.	1cc
1G	1g	2r	.
.	.	[2d	2b-
=104	=104	=104	=104
1A	2f	2d]	1a
.	2.e	2c	.
1B-	.	1d	2g
.	4d	.	.
.	[2d	.	2g
=105	=105	=105	=105
1A	2d]	2e	1a
.	2c	2f	.
1G	2d	[1g	1b-
.	[2e	.	.
=106	=106	=106	=106
[0A	2e]	2g]	[0a
.	1d	2f	.
.	.	[1e	.
.	4c#	.	.
.	4B	.	.
=107	=107	=107	=107
1A]	1c#	1e]	1a]
[1D	[1d	[1f#	[1a
=108	=108	=108	=108
1D]	1d]	1f#]	1a]
==	==	==	==
*-	*-	*-	*-
!!!CDT: 1525/^1526/-1594/2/2
!!!OCY: Italia
!!!AGN: Mass (Parody)
!!!AST: renaissance, vocal
!!!ASW: Madrigal 1555 (Palestrina)
!!!PWK: Masses, Book 10
!!!RNB: Cadence finals: A
!!!YOR: Le Opere Complete, v. 27, p. 30
!!!YOO: Rome, Italy: Fratelli Scalera
!!!END: 1992//
!!!EED: John Miller
!!!YEC: Copyright 2000, John Miller
!!!YEN: United States of America
!!!YEM: Rights to all derivative electronic formats reserved.
!!!YEM: Refer to licensing agreement for further details.
!!!YEM: This file must be accompanied by the licensing agreement.
!!!YEM: A copy of the licensing agreement may be found at http://www.music-cog.ohio-state.edu/HumdrumDatabases/Palestrina/license.txt
!!!EMD: converted to Humdrum by Bret Aarden
